src/lib/assets/svg/Ic_like.svg

<svg version="1.1" xmlns="http://www.w3.org/2000/svg" xmlns:xlink="http://www.w3.org/1999/xlink" width="18" height="18" viewBox="0,0,256,256"><g fill="none" fill-rule="nonzero" stroke="#9f9f9f" stroke-width="2" stroke-linecap="round" stroke-linejoin="round" stroke-miterlimit="10" stroke-dasharray="" stroke-dashoffset="0" font-family="none" font-weight="none" font-size="none" text-anchor="none" style="mix-blend-mode: normal"><g transform="translate(-1.41677,0) scale(14.22222,14.22222)"><path d="M10.8881,7.33333h4.0228c0.2878,0.00001 0.5708,0.07262 0.8222,0.21094c0.2514,0.13832 0.4628,0.33775 0.6142,0.57937c0.1513,0.24161 0.2376,0.5174 0.2506,0.80116c0.013,0.28377 -0.0477,0.5661 -0.1764,0.8202l-2.9554,5.8333c-0.1403,0.2771 -0.3561,0.5101 -0.623,0.6729c-0.267,0.1628 -0.5747,0.2489 -0.8885,0.2488h-3.39201c-0.13763,0 -0.27527,-0.0167 -0.40953,-0.05l-3.17582,-0.7833M10.8881,7.33333v-4.16666c0,-0.44203 -0.1779,-0.86595 -0.4946,-1.17851c-0.3168,-0.31257 -0.74632,-0.48816 -1.19422,-0.48816h-0.08022c-0.4222,0 -0.76419,0.3375 -0.76419,0.75417c0,0.595 -0.17817,1.17666 -0.5134,1.67166l-2.86423,4.24084v7.50003M10.8881,7.33333h-1.68882M4.97724,15.6667h-1.68882c-0.4479,0 -0.87745,-0.1756 -1.19417,-0.4882c-0.31671,-0.3125 -0.49464,-0.7365 -0.49464,-1.1785v-5c0,-0.44203 0.17793,-0.86595 0.49464,-1.17851c0.31672,-0.31256 0.74627,-0.48816 1.19417,-0.48816h2.11102"></path></g></g></svg>

<svg width="18" height="18" viewBox="0 0 18 18" fill="none" xmlns="http://www.w3.org/2000/svg">
<path d="M10.8881 7.33333H14.9109C15.1987 7.33334 15.4817 7.40595 15.7331 7.54427C15.9845 7.68259 16.1959 7.88202 16.3473 8.12364C16.4986 8.36525 16.5849 8.64104 16.5979 8.9248C16.6109 9.20857 16.5502 9.4909 16.4215 9.745L13.4661 15.5783C13.3258 15.8554 13.11 16.0884 12.8431 16.2512C12.5761 16.414 12.2684 16.5001 11.9546 16.5H8.56259C8.42496 16.5 8.28732 16.4833 8.15306 16.45L4.97724 15.6667M10.8881 7.33333V3.16667C10.8881 2.72464 10.7102 2.30072 10.3935 1.98816C10.0767 1.67559 9.64718 1.5 9.19928 1.5H9.11906C8.69686 1.5 8.35487 1.8375 8.35487 2.25417C8.35487 2.84917 8.1767 3.43083 7.84147 3.92583L4.97724 8.16667V15.6667M10.8881 7.33333H9.19928M4.97724 15.6667H3.28842C2.84052 15.6667 2.41097 15.4911 2.09425 15.1785C1.77754 14.866 1.59961 14.442 1.59961 14V9C1.59961 8.55797 1.77754 8.13405 2.09425 7.82149C2.41097 7.50893 2.84052 7.33333 3.28842 7.33333H5.39944" stroke="white" stroke-width="2" stroke-linecap="round" stroke-linejoin="round"/>
</svg>
